X: 25764
T: Mary's
R: jig
M: 6/8
K: Dmajor
BGG EGG|DEG EFG|FDD AFB|AFB ABd|
BGG EGG|DEG EFG|FDA FBA|BGF G3:|
GBd g3|efg dBG|GBd gfg|afd d3|
GBd g3|efg dBG|BAB ded|BGF G3:|

